icons/svg/logout-variant.svg

﻿<?xml version="1.0" encoding="utf-8"?>
<!DOCTYPE svg PUBLIC "-//W3C//DTD SVG 1.1//EN" "http://www.w3.org/Graphics/SVG/1.1/DTD/svg11.dtd">
<svg xmlns="http://www.w3.org/2000/svg" xmlns:xlink="http://www.w3.org/1999/xlink" version="1.1" baseProfile="full" width="24" height="24" viewBox="0 0 24.00 24.00" enable-background="new 0 0 24.00 24.00" xml:space="preserve">
	<path fill="#050708" fill-opacity="1" stroke-width="0.2" stroke-linejoin="round" d="M 14.0841,15.585L 16.6701,12.999L 6.99998,13.0001L 6.99998,11.0001L 16.6701,10.999L 14.0841,8.413L 15.4991,6.99902L 20.4991,11.999L 15.4991,16.999L 14.0841,15.585 Z M 18.9994,2.99805C 20.1034,2.99805 20.9994,3.89404 20.9994,4.99805L 20.9994,9.67097L 18.9994,7.67097L 18.9994,4.99805L 4.99939,4.99805L 4.99939,18.998L 18.9994,18.998L 18.9994,16.329L 20.9994,14.329L 20.9994,18.998C 20.9994,20.1021 20.1034,20.998 18.9994,20.998L 4.99939,20.998C 3.89439,20.998 2.99939,20.1021 2.99939,18.998L 2.99939,4.99805C 2.99939,3.89404 3.89439,2.99805 4.99939,2.99805L 18.9994,2.99805 Z "/>
</svg>

<svg xmlns="http://www.w3.org/2000/svg" version="1.1" baseProfile="full" width="24" height="24" viewBox="0 0 24.00 24.00" xml:space="preserve"><path fill="#050708" fill-opacity="1" stroke-width=".2" stroke-linejoin="round" d="M14.084 15.585L16.67 13H7v-2h9.67l-2.586-2.587L15.5 7l5 5-5 5-1.416-1.415zM19 2.998c1.103 0 2 .896 2 2V9.67l-2-2V5H5v14h14v-2.67l2-2V19c0 1.104-.897 2-2 2H5c-1.106 0-2-.896-2-2v-14c0-1.104.894-2 2-2h14z"/></svg>
